X:1
T:"Knepiga polskan" av Per Saxholm 
R:Polska
S:Efter Per Saxholm
O:Karlskoga, Värmland
Z:ABC-transkribering av Per Saxholm
M:3/4
L:1/8
K:Bm
|[Af]2 fg fe|fa [DB]2 [Bg]2|f2 e^d eg|b^d f2 e2:|
eg ba f2|^df ag e2|eg fB ^df|1ag eg f^d:|2ag e4|]

